!!!OTL: Aihu renmin zidibing
!!!ARE: Asia, China, Shanxi Zuoquan
!! I, 296, 1)
!!!SCT: C2098
!!!YEM: Copyright 1995, estate of Helmut Schaffrath.
**kern
*ICvox
*Ivox
*M2/4
*k[f#c#g#]
*A:
{8a
8a
8g#
16f#
16f#
=1
8a
8e
4e
=2
8a
8g#
8f#
8a
=3
2b}
=4
{8.ee
16ff#
8ee
8cc#
=5
8ee
4b
8cc#
=6
8ee
8a
8g#
8f#
=7
8a
4.e}
==
!!!AGN: Xiaodiao
!! Han
!!!ONB: ESAC (Essen Associative Code) Database: SENGANSU
!!!AMT: simple duple
!!!AIN: vox
!!!EED: Helmut Schaffrath
!!!EEV: 1.0
*-
